client/assets/images/email-providers/titan.svg

<svg
	width="24"
	height="24"
	viewBox="0 0 24 24"
	fill="none"
	xmlns="http://www.w3.org/2000/svg"
>
	<g clip-path="url(#clip0)">
		<rect width="24" height="24" fill="white" />
		<path
			d="M19.4907 19.5808L12.2968 23.1776C12.2604 23.1963 12.2222 23.2117 12.1828 23.2234C12.1219 23.2416 12.0604 23.2501 12 23.2501C11.9396 23.2501 11.8781 23.2416 11.8172 23.2234C11.7778 23.2117 11.7396 23.1963 11.7032 23.1776L4.50931 19.5808C4.2891 19.4707 4.15 19.2456 4.15 18.9994V10.9769L0.27751 8.76413C0.0837898 8.65343 -0.0389843 8.45158 -0.0493088 8.2301L-0.0493355 8.22893L-0.0499992 8.20095V8.19979V2.73V2.68V2.58231V2.2V2.15H-0.0482883C-0.0178967 1.54046 0.437481 0.95 1.20144 0.95H22.7986V0.949995L22.7992 0.950005L22.8378 0.950533V0.950528L22.8385 0.950547C23.5773 0.970846 24.0186 1.54967 24.0485 2.15H24.05V2.19951C24.0501 2.20987 24.0501 2.22024 24.05 2.2306V2.58231V2.68V2.73V8.19979H24.05L24.05 8.20095L24.0493 8.22893L24.0493 8.22893L24.0493 8.2301C24.039 8.45158 23.9162 8.65343 23.7225 8.76413L19.85 10.977V18.9994C19.85 19.2456 19.7109 19.4707 19.4907 19.5808ZM22.75 7.82274V3.58948L18.7815 5.3535L12.65 8.08773V21.5482L18.55 18.5982L18.55 10.6L18.55 10.5988L18.5507 10.5709L18.5507 10.5697C18.561 10.3482 18.6838 10.1463 18.8775 10.0356L22.75 7.82274ZM5.8232 4.19961L12 6.94528L18.2114 4.18429L22.5492 2.25H1.45098L5.82315 4.19959L5.8232 4.19961ZM11.35 21.5475V8.08752L5.28321 5.38225L5.28316 5.38223L1.25 3.58938V7.82254L5.12249 10.0354C5.31621 10.1461 5.43899 10.3479 5.44931 10.5694L5.44934 10.5706L5.45 10.5985V10.5997V18.5976L11.35 21.5475Z"
			fill="#101517"
			stroke="#101517"
			stroke-width="0.1"
		/>
	</g>
	<defs>
		<clipPath id="clip0">
			<rect width="24" height="24" fill="white" />
		</clipPath>
	</defs>
</svg>

<svg width="24" height="24" fill="none" xmlns="http://www.w3.org/2000/svg"><g clip-path="url(#clip0)"><path d="M19.49 19.58l-7.193 3.598a.662.662 0 01-.297.072.638.638 0 01-.297-.072L4.51 19.58a.65.65 0 01-.359-.582v-8.022L.278 8.764A.65.65 0 01-.05 8.23V8.23L-.05 8.2V2.15h.002c.03-.61.485-1.2 1.25-1.2h21.597v0h.039v0h0c.74.02 1.18.6 1.21 1.2h.002V8.2h0v.029h0v.001a.65.65 0 01-.328.534l-3.872 2.213v8.022a.65.65 0 01-.36.582zm3.26-11.757V3.589l-3.968 1.765-6.132 2.734v13.46l5.9-2.95V10.57a.65.65 0 01.328-.534l3.872-2.213zM5.823 4.2L12 6.945l6.211-2.76L22.55 2.25H1.451L5.823 4.2h0zm5.527 17.348V8.087L5.283 5.382h0L1.25 3.59v4.234l3.872 2.212a.65.65 0 01.327.534v.002l.001.027v8l5.9 2.95z" fill="#101517" stroke="#101517" stroke-width=".1"/></g></svg>
